flaticon/army-badges/aeroplane.svg

<svg xmlns="http://www.w3.org/2000/svg" width="32" height="32" viewBox="0 0 24 24">
    <path d="M 21.539062 16.601562 L 15.621094 8.71875 L 15.621094 5.238281 C 15.621094 5.078125 15.539062 4.960938 15.421875 4.878906 C 15.300781 4.839844 15.140625 4.800781 15.019531 4.878906 L 13.9375 5.40625 C 13.816406 3.9375 13.488281 2.410156 12.980469 0.878906 L 12.898438 0.679688 C 12.78125 0.28125 12.421875 0 11.980469 0 C 11.539062 0 11.179688 0.28125 11.058594 0.679688 L 10.980469 0.878906 C 10.476562 2.386719 10.171875 3.910156 10.042969 5.359375 L 8.980469 4.839844 C 8.859375 4.761719 8.699219 4.761719 8.578125 4.839844 C 8.460938 4.921875 8.378906 5.078125 8.378906 5.199219 L 8.378906 8.679688 L 2.460938 16.558594 C 2.421875 16.640625 2.378906 16.71875 2.378906 16.800781 L 2.378906 18.398438 C 2.378906 18.601562 2.5 18.761719 2.699219 18.800781 L 5.5 19.359375 C 5.519531 19.359375 5.53125 19.359375 5.542969 19.359375 L 8.179688 19.878906 L 6.058594 23.398438 C 5.941406 23.519531 5.980469 23.71875 6.058594 23.839844 C 6.140625 23.921875 6.261719 24 6.378906 24 C 6.421875 24 6.421875 24 6.460938 24 L 10.058594 23.199219 C 10.21875 23.160156 10.339844 23.039062 10.378906 22.878906 L 10.632812 21.621094 C 11.019531 21.890625 11.492188 22.039062 11.980469 22.039062 C 12.464844 22.039062 12.929688 21.894531 13.328125 21.617188 L 13.578125 22.878906 C 13.621094 23.039062 13.738281 23.160156 13.898438 23.199219 L 17.5 24 C 17.539062 24 17.539062 24 17.578125 24 C 17.699219 24 17.820312 23.960938 17.980469 23.878906 C 18.058594 23.761719 18.058594 23.558594 17.980469 23.441406 L 15.859375 19.921875 L 21.300781 18.839844 C 21.5 18.800781 21.621094 18.640625 21.621094 18.441406 L 21.621094 16.839844 C 21.621094 16.761719 21.578125 16.679688 21.539062 16.601562 Z M 20.78125 18.078125 L 18.78125 18.480469 L 18.78125 14.285156 L 20.78125 16.960938 Z M 3.179688 18.078125 L 3.179688 16.960938 L 5.179688 14.285156 L 5.179688 18.472656 Z M 7.179688 23 L 9.101562 19.800781 C 9.179688 19.679688 9.179688 19.558594 9.140625 19.441406 C 9.101562 19.320312 8.980469 19.238281 8.859375 19.199219 L 5.980469 18.632812 L 5.980469 13.214844 L 9.101562 9.039062 C 9.140625 8.960938 9.179688 8.878906 9.179688 8.800781 L 9.179688 5.839844 L 9.980469 6.238281 C 9.980469 6.363281 9.980469 6.480469 9.980469 6.59375 C 9.976562 6.796875 9.976562 7 9.980469 7.199219 L 9.980469 20.71875 L 9.621094 22.441406 Z M 11.980469 21.238281 C 11.5 21.238281 11.101562 21.039062 10.78125 20.679688 L 10.78125 7.199219 C 10.78125 6.839844 10.78125 6.480469 10.859375 6 C 10.859375 5.929688 10.84375 5.867188 10.8125 5.8125 C 10.914062 4.308594 11.222656 2.710938 11.738281 1.160156 L 11.820312 0.960938 C 11.859375 0.839844 11.941406 0.839844 11.980469 0.839844 C 12.019531 0.839844 12.101562 0.839844 12.140625 0.960938 L 12.21875 1.160156 C 12.753906 2.757812 13.0625 4.375 13.152344 5.925781 C 13.144531 5.964844 13.140625 6 13.140625 6.039062 C 13.179688 6.480469 13.179688 6.839844 13.179688 7.199219 L 13.179688 20.679688 C 12.898438 21.039062 12.460938 21.238281 11.980469 21.238281 Z M 14.859375 19.839844 L 16.78125 23.039062 L 14.339844 22.480469 L 13.980469 20.761719 L 13.980469 7.199219 C 13.992188 6.882812 13.992188 6.5625 13.984375 6.238281 L 14.78125 5.839844 L 14.78125 8.800781 C 14.78125 8.921875 14.820312 9 14.859375 9.039062 L 17.980469 13.214844 L 17.980469 18.652344 L 15.101562 19.238281 C 14.980469 19.28125 14.859375 19.359375 14.820312 19.480469 C 14.78125 19.601562 14.78125 19.71875 14.859375 19.839844 Z M 14.859375 19.839844"/>
    <path d="M8.261719 13.71875C8.101562 13.558594 7.859375 13.558594 7.699219 13.71875L6.5 14.921875C6.339844 15.078125 6.339844 15.320312 6.5 15.480469L7.699219 16.679688C7.78125 16.761719 7.859375 16.800781 7.980469 16.800781 8.101562 16.800781 8.179688 16.761719 8.261719 16.679688L9.460938 15.480469C9.621094 15.320312 9.621094 15.078125 9.460938 14.921875zM7.980469 15.839844L7.339844 15.199219 7.980469 14.558594 8.621094 15.199219zM15.980469 16.800781C16.101562 16.800781 16.179688 16.761719 16.261719 16.679688L17.460938 15.480469C17.621094 15.320312 17.621094 15.078125 17.460938 14.921875L16.261719 13.71875C16.101562 13.558594 15.859375 13.558594 15.699219 13.71875L14.5 14.921875C14.339844 15.078125 14.339844 15.320312 14.5 15.480469L15.699219 16.679688C15.78125 16.761719 15.859375 16.800781 15.980469 16.800781zM15.980469 14.558594L16.621094 15.199219 15.980469 15.839844 15.339844 15.199219zM15.980469 14.558594"/>
</svg>

<svg xmlns="http://www.w3.org/2000/svg" width="32" height="32" viewBox="0 0 24 24">
    <path d="M21.54 16.602L15.62 8.719v-3.48a.427.427 0 0 0-.2-.36c-.12-.04-.28-.078-.401 0l-1.082.527c-.122-1.468-.45-2.996-.958-4.527l-.082-.2A.944.944 0 0 0 11.98 0c-.44 0-.8.281-.921.68l-.079.199a19.729 19.729 0 0 0-.937 4.48L8.98 4.84a.375.375 0 0 0-.402 0 .486.486 0 0 0-.2.36v3.48l-5.917 7.88c-.04.082-.082.16-.082.242v1.597a.39.39 0 0 0 .32.403l2.801.558h.043l2.637.52-2.121 3.52c-.118.12-.079.32 0 .44.082.083.203.161.32.161h.082l3.598-.8c.16-.04.28-.16.32-.321l.254-1.258c.387.27.86.418 1.347.418.485 0 .95-.144 1.348-.422l.25 1.262c.043.16.16.281.32.32L17.5 24h.078c.121 0 .242-.04.402-.121a.438.438 0 0 0 0-.438l-2.12-3.52 5.44-1.081c.2-.04.321-.2.321-.399V16.84c0-.078-.043-.16-.082-.238zm-.759 1.476l-2 .402v-4.195l2 2.676zm-17.601 0v-1.117l2-2.676v4.188zm4 4.922l1.922-3.2a.397.397 0 0 0 .039-.359c-.04-.12-.16-.203-.282-.242l-2.879-.566v-5.418l3.122-4.176a.57.57 0 0 0 .078-.238V5.84l.8.398v.356a15.64 15.64 0 0 0 0 .605v13.52l-.359 1.722zm4.8-1.762c-.48 0-.878-.199-1.199-.558V7.2c0-.36 0-.72.078-1.2a.371.371 0 0 0-.046-.188c.101-1.503.41-3.101.925-4.652l.082-.2c.04-.12.121-.12.16-.12.04 0 .122 0 .16.12l.079.2a18.44 18.44 0 0 1 .933 4.766.558.558 0 0 0-.011.113c.039.441.039.8.039 1.16v13.48c-.282.36-.72.56-1.2.56zm2.88-1.398l1.921 3.2-2.441-.56-.36-1.718V7.199c.012-.316.012-.636.004-.96l.797-.4v2.962c0 .12.04.199.078.238l3.121 4.176v5.437l-2.878.586c-.122.043-.243.121-.282.242a.396.396 0 0 0 .04.36zm0 0"/>
    <path d="M8.262 13.719a.39.39 0 0 0-.563 0L6.5 14.922a.385.385 0 0 0 0 .558l1.2 1.2c.081.082.16.12.28.12.122 0 .2-.038.282-.12l1.199-1.2a.385.385 0 0 0 0-.558zm-.282 2.12l-.64-.64.64-.64.641.64zm0 0M15.98 16.8c.122 0 .2-.038.282-.12l1.199-1.2a.385.385 0 0 0 0-.558l-1.2-1.203a.39.39 0 0 0-.562 0L14.5 14.922a.385.385 0 0 0 0 .558l1.2 1.2c.081.082.16.12.28.12zm0-2.241l.641.64-.64.64-.641-.64zm0 0"/>
</svg>
